X:1
T:The souls of the righteous - Nares
T:#
%%score 1 2 { ( 3 4 ) | 5 }
L:1/8
Q:1/4=88
M:4/4
K:C
V:1 treble nm="Soprano I" snm="S1"
V:2 treble nm="Soprano II" snm="S2"
V:3 treble nm="Midi_20"
V:4 treble 
V:5 bass 
V:1
 z8 | z8 | z8 | z8 | z8 | z8 ||[K:A][M:4/4][K:treble] z8 | z8 | z4 z2 E2 |{GB} A4 (A>B) c2 | %10
w: ||||||||The|* of * the|
{c} B2 A4 G2 | F2 (3(EGB){B} A3 G | G4 G2 (B/A/G/A/) | B2 (c>d) d2 c2 | c2 B2 z2 B2 | %15
w: * eous are|in the * * * of|God, and there * * *|shall no * tor- ment|touch them, there|
{c} B2 (A>G) A2 A2 | A2 G2 z4 | z2 F2 F2 (A/G/F) | (d8- | d2 cB c2){e} d2 | (c4{c} B3 A) | A4 z4 | %22
w: * no * tor- ment|touch them,|there shall no * *|tor\-||touch * *|them.|
 z8 | z8 | z4 z2 c2 |{cd} e4 d2 c2 | B2 A2 c4- | c2 Bc d2 d2 | (d2 c2) A4- | A2 AB{d} c2 (BA) | %30
w: ||The|* of the|right- eous are|* in the hand of|God, * are|* in the * of *|
 (A2 G2) z4 | z8 | z2 c2 c2{BA} G2 |!<(! (A8-!<)! |!>(! A2!>)! GF GABG |!<(! c8-!<)! | %36
w: God, *||There shall *|tor\-|||
!>(! c2!>)! B^A B=AGF | E2 A>G A2){c} B2 | (A4 TG3 A) | A4 z4 | z2 (G>A) (B>c) (c>d) | (d8- | %42
w: ||touch * *|them,|there * shall * no *|tor\-|
 d2 c>B c2) d2 | (c4 TB3 A) | A4 z4 | z8 | z8 | z8 ||[K:D][M:3/4]"^Solo" z8 x7/8 | z6 | z6 | %51
w: * * * * ment|touch * *|them.|||||||
[M:3/4] z6 | z2 F2 G2 | A3 G FE | D4 d2 | (E3 F) G2 | F4 z2 | G2{AB} =c2 B2 | (A>G) F2 E2 | %59
w: |In the|sight of the un-|wise they|seem * to|die,|and * de-|part\- * ure is|
 (^D>E) F2 A2 | G>F E2 z2 | z2 G2 A2 | B3 A (GF) | E3 F{A} G2 |{G} F>E D2 z2 | z2 z2!p! F2 | %66
w: ta\- * ken for|mi- se- ry,|their de-|par- ture is *|ta- ken *|* se- ry,|but|
 (B>c) d2 (c>B) | B6 | A2 D2{EF} G2 | (G2 F2) z2 | d2 c2{c} B2 |"^cresc." A6- |"^dim." A6 | %73
w: they * are in *|peace,|they are *|peace, *|they are *|peace,||
 z2!mf! F2 G2 | A3 d cB | (A3 G) (FE) | (D2 E2) (3(EFG) |{A} (G2 F2) z2 | d2 F2 B2 | (A>F) D2 E2 | %80
w: In the|sight of the un-|wise * they *|seem * to * *||and their de-|part\- * ture is|
 F3 G{FG} A2 | G>F E2 z2 | z2 z2 C2 | (D>E) F2 E2 | D4 d2- | d2 c2 B2 | (B>^G A2) =G2 | %87
w: ta- ken *|mi- se- ry,|but|they * are in|peace, they|* are in|peace, * * they|
 (FB/G/) (F2 E2) | D4 z2 x23/8 | z6 | z6 | z6 | z6 ||[K:G][M:4/4]"^Recit."[Q:1/4=66] z2 z F B2 BF | %94
w: are * * in *|peace.|||||For though they be|
 AA A2 z A/B/ c>B ||[M:4/4][Q:1/4=66][Q:1/4=66][Q:1/4=66]{A} G2 !fermata!z2 z"^Largo" GGA | %96
w: pu- ni- shed in the sight of|* yet is their|
 B2 d3 dcB | c>c c2 z FFG | A2 !>!c3 cBA | B>B B2 z Bed | c2 B>c A2 (^GA/B/) | AE (A/B/)c (c2 B2) | %102
w: hope full of im- mor-|ta- li- ty, yet is their|hope full of im- mor-|ta- li- ty. For God hath|prov'd them, and found them * *|wor- thy of * him- self; *|
 z Eed c2 x x3/4 x/8{cd} c | ccc[Q:1/4=44] (!fermata!c2 !fermata!B2) x || %104
w: for God hath found wor-|thy of him- self. *|
[K:A]"^Vivace"[Q:1/4=88] z EAA AGcc |[Q:1/4=88] x8 |[Q:1/4=88][Q:1/4=88] cB (e3 d/c/ d)d | %107
w: And in the day of vi- si-||ta- tion they * * * shall|
 (dc) z2 c3 c |{d} (cB/A/ B)B{c} (BA/G/ A)A |{B} A2 G2 z GAB | c2 c2 z Bcd |{cd} e2 (dc){e} d2 cB | %112
w: shine. * They shall|* * * * shall * * * * the|* tions, and have do-|mi- nion, and have do-|* nion * * ver the|
"^Slow" (A4 G4) | A8 |] %114
w: peo\- *|ple.|
V:2
[K:A]"^The souls of the righteous""^Wisdom of Solomon 3:1-8""^James Nares\n(1715-1783)""^Larghetto quasi andante" z8 | %1
w: |
 z8 | z8 | z8 | z4 z2 E2 | A4 (A>B) c2 ||{c} B2 A2 (E3 F/=G/) | F2 E2 (F>=G) (G>A) | A4 z4 | z8 | %10
w: |||The|souls of * the|* eous are * *|in the hand * of *|God,||
 z8 | z8 | z4 E2 (G/F/E/F/) | G2 (A>B) B2 A2 | A2 G2 z2 G2 |{A} G2 (F>^E) F2 F2 | F2 ^E2 c4 | %17
w: ||and there * * *|shall no * tor- ment|touch them, there|* no * tor- ment|touch them, no|
 (c8- | c2 B^A B=AGF | E2 AG A2){c} B2 | (A4{A} G3 A) | A4 z4 | z8 | z8 | z4 z2 A2 |{AB} c4 B2 A2 | %26
w: tor\-|||touch * *|them.|||The|* of the|
 G2 A2 A4- | A2 GA F2 F2 | (F2 E2) c4- | c2 FG{B} A2 (GF) | (F2 ^E2) E2 F2 | G4 (A3 G) | %32
w: right- eous are|* in the hand of|God, * are|* in the * of *|God, * and there|shall no *|
!<(! (G8-!<)! |!>(! G2!>)! F^E FGAF |!<(! B8-!<)! |!>(! B2!>)! AG AGFE | D2) D2 d4 | %37
w: tor\-||||* ment, no|
 (d2 c>B c2){e} d2 | (c4 TB3 A) | A4 z4 | z2 (E>F) (G>A) (A>B) | (B8- | B2 A>G A2) B2 | %43
w: tor- * * * *|touch * *|them,|there * shall * no *|tor\-|* * * * ment|
 (A4 TG3 A) | A4 z4 | z8 | z8 | z8 ||[K:D][M:3/4] z8 x7/8 | z6 | z6 |[M:3/4] z6 | z6 | z6 | z6 | %55
w: touch * *|them.|||||||||||
 z6 | z6 | z6 |[M:3/4] z6 | z6 | z6 | z6 | z6 | z6 |[M:3/4] z6 | z6 | z6 | z6 | z6 | z6 | %70
w: |||||||||||||||
[M:3/4] z6 | z6 | z6 | z6 | z6 | z6 | z6 |[M:3/4] z6 | z6 | z6 | z6 | z6 | z6 |[M:3/4] z6 | z6 | %85
w: |||||||||||||||
 z6 | z6 | z6 | z6 x23/8 | z6 |[M:3/4] z6 | z6 | z6 || z8 | z8 ||[K:G][M:4/4] !fermata!z4 z EEF | %96
w: ||||||||||Yet is their|
 G2 B3 BA^G | A>A A2 z DDE | F2 !>!A3 AGF | G>G G2 z4 | z8 | z4 z Eed | c2 BB A2 x x3/4 x/8{AB} A | %103
w: hope full of im- mor-|ta- li- ty, yet is their|hope full of im- mor-|ta- li- ty.||For God hath|prov'd them, and found wor-|
 AAA{!fermata!B} !fermata!A2 !fermata!^G2 x ||[K:A] z4 z EAA | x8 | AGcc c (B/A/) BB | %107
w: thy of him- * *|And in the||day of vi- si- ta- tion * they shall|
 (BA) z2 A3 A |{B} (AG/F/ G)G{A} (GF/^E/ F)F |{G} F2 ^E2 z EFG | A2 A2 z GAB |{AB} c2 (BA) F2 ED | %112
w: shine. * They shall|* * * * shall * * * * the|* tions, and have do-|mi- nion, and have do-|* nion * o- ver the|
 (C4 B,2 CD) | C8 |] %114
w: peo\- * * *|ple.|
V:3
[K:A] z2 E4 D2 | C2 e>d c2 B2 | (3Ace d2 (3cea f>e | d2 c>d c2 B2 | [CA]4 z2 E2 | A4 (.A2 .c2) || %6
 (.B2 .A2) E4 | .F2 EA (.[FA]2 .=G2) | [CA]4 z2 [B,E]2 | [A,A]4 (.A2 .c2) | B2 A4 G2 | %11
 (.F2 .E2){B} A4 | G4 (G2 A2 | B2 c2 d2 c2) | (c2 B2) B4 | (B3 G A2) .A2 | A2 G2 c4 | c8 | d8- | %19
 d2 B2 c2 d2 | c4 B4 | A2 e>d c2 B2 | (3Ace d2 (3cea f>e | d2 c2 B4 | [CA]4 z2 [Ac]2 | %25
 [ce]4 [Bd]2 [Ac]2 | [EGB]2 [CFA]2 [Ac]4- | [Ac]2 [GB][Ac] [Fd]4 | ([Fd]2 [Ec]2) [Ac]4- | %29
 [Ac]2 [FA][GB] [Ac]3 [FA] | ([FA]2 [^EG]2) E2 F2 | [CG]2 z2 [CA]2 z2 | [^EG]2 c2 c2 G2 | A8 | B8 | %35
 c8 | c2 B2 d4 | [Ed]2 [GB]2 [Ac]2 [Bd]2 | [Ac]4 B4 | [CA]2 [Ac]4 [GB][FA] | %40
 [EG]2 [eg]>[fa] [fa]>[gb] [gb]>[ac'] | [bd']8- | [bd']2 [ac']>[gb] [ac']2{e'} [bd']2 | %43
 [ac']4 [gb]4 | [ca]2 e>d c2 B2 | (3Ace d2 (3cea f>e | [fd']>[gb][ac']>e [ec']2{c'} [db]2 | %47
 [ca]8 ||[K:D][M:3/4] z2 f2 Tx x3/4 x/8{fg} a3 | gf e d3 | d'c' b x3 |[M:3/4] a>b [df]2 [ce]2 | %52
 d2 F2 G2 | A3 G[DF][CE] | z2 A2 d2 | E3 F G2 | F3 GAF | dG=cABG | A2 F2 E2 | ^D2 F2 A2 | %60
 G2 Ee=d=c | BA G2 A2 | B3 AGF | E3 F G2 | F2 DdcB | AGFG F2 | B>c [Bd]2 [^Ac]2 | BB,DGBD | %68
 [DA]2 [A,D]2 [CG]2 | G2 FABc | d2 c2 B2 | A6- | A6 | A2 F2 G2 | AGFdcB | d4 d2 | dD E4 | %77
 [EG]2 [DF]2 z2 | [DFd]2 [CF]2 B2 | [DA]2 [A,D]2 [CE]2 | [B,F]4 [B,A]2 | G2 EAGc | B>A G2 A2 | %83
 A>G [DF]2 [CE]2 | DdcB d2 | d2 c2 B2 | B2 A2 G2 | FB [DF]2 [CE]2 | D2 f2 Tx x3/4 x/8{fg} a3 | %89
 gf e x3 | d3 d'c'b | a>d [df]2 [Ae]2 | [Fd]6 ||[K:G][M:4/4] [B,FB]8- | [B,FA]8 || %95
[M:4/4] !fermata![B,EG]4 z [EG][EG][FA] | [GB]2 [Bd]4 [Ac][^GB] | [EAc]4 z [DF][DF][EG] | %98
 [FA]2 [Ac]3 [Ac][GB][FA] | [DGB]4 z B-[Be]d | [Gc]2 [FB]2 [EA]2 [D^G]2 | %101
 [EA] z Ac [Ac][^GB][Ee][Gd] | [Ac][^GB][Ee][Bd] c2 B2 x7/8 | %103
 [EAc]2 [FAc]2 !fermata![Ac]2 !fermata![^GB]2 ||[K:A] [EAe]E [CA]2 [CA][B,G] [Ac]2 | %105
 [Ac][GB] [ce]3 [Bd]/[Ac]/[Bd][Gd] | [Bd][Ac] z2 [Ac]4 | [Ac] [GB]2 [GB] [GB] [FA]2 [FA] | %108
 [FA]2 [^EG]2 z [EG][FA][GB] | [Ac]4 z [GB][Ac][Bd] | [ce]3 [Ac] [Fd]2 [Ec][DB] | %111
"^Slow" [CEA]4 [B,DG]4 | [A,CEA]8 | x8 |] %114
V:4
[K:A] z2 C>B, C2 B,2 | A,2 E4 G2 | E2 A>B A2 A2 | z GA>B A2 [DG]2 | x8 | x2 C>D E4 || F2 E2 D2 C2 | %7
 A,2 A,2 D4 | x8 | A2 GF E4 | F2 E2 ^D2 [B,E]2 | C2 B,2 C2 ^D2 | E4 E2 F2 | G2 A2 B2 A2 | %14
 A2 G2 G2 F2 | ^E4 F2 [^DF]2 | F2 ^E2 c2 B2 | A2 F4 A2 | c2 B^A B=AGF | E2 G2 A2 B2 | A4 G4 | %21
 C2 E4 G>F | E2 AB A2 A2 | G2 A2 A2 GD | x8 | E8 | x8 | x8 | x8 | x8 | x8 | x8 | x4 C4 | %33
 G2 F^E F4 | A2 GF G4 | B2 AG A2 F2 | D4 B2 G2 | x8 | x4 G3 D | x8 | x8 | x8 | x8 | x8 | %44
 x2 E4 G>F | E2 A>B A2 A2 | x8 | x8 ||[K:D][M:3/4] x8 x7/8 | x6 | x6 |[M:3/4] x6 | x2 D4 | D4 x2 | %54
 D4 F2 | D2 C2 C2 | D4 D2 | D2 D2 D2 | ED=CB,A,C | B,2 B,2 F2 | E2 E4 | E4 ^D2 | E4 E^D | %63
 E=D C2 C2 | D2 D4 | D4 FE | D2 x4 | x6 | x6 | D4 FE | DB A2 ^G2 | C3 DCB, | A,FEDCB, | A,C D2 C2 | %74
 D3 D3 | AGFGFE | D4 C2 | x6 | x4 B,C | x6 | x6 | B,3 E2 ^D | E4 C2 | =D2 x4 | D4 A2 | G4 F2 | %86
 E2 C2 D2 | D2 x4 | x8 x7/8 | x6 | x6 | x6 | x6 ||[K:G][M:4/4] x8 | x8 ||[M:4/4] x8 | x8 | x8 | %98
 x8 | x8 | x8 | x2 E2 x4 | x4 AE^GE x7/8 | x4 E4 ||[K:A] x8 | x8 | E2 x2 x4 | D2 C2 C4 | x8 | x8 | %110
 E4 x4 | x8 | x8 | x8 |] %114
V:5
[K:A] A,,2 A,>G, A,2 E,2 | A,,2 C>B, A,2 E,D, | C,2 F,>G, A,2 D,>C, | B,,2 A,,2 E,2 E,,2 | %4
 A,2 E,2 A,,2 z2 | z2 A,,>B,, (.C,2 .A,,2) || (.D,2 .C,2) z2 A,,2 | (.D,2 .C,2 .B,,2 .E,2) | %8
 A,,2 TA,>G, A,2 G,2 | F,2 E,D, (.C,2 .A,,2) | (.D,2 .C,2 .B,,2 .E,2) | (.A,2 .G,2 .F,2 .B,,2) | %12
 E,2 B,,2 [E,,E,]4- | [E,,E,]4 E,2 ^D,2 | E,2 E,,2 =D,,2 D,2 | [C,,C,]6 [^B,,,^B,,]2 | %16
 [C,,C,]3 B,, A,,F,G,,^E, | F,,2 A,>G, A,2 F,2 | B,2 C2 D2 B,2 | G,2 E,2 A,2 D,2 | %20
 E,2 D,2 E,2 E,,2 | A,,2 C>B, A,2 E,>D, | C,2 F,>G, A,2 D,>C, | B,,2 A,,2 E,2 E,,2 | %24
 A,,2 E,,2 A,,,4 | A,,2 A,2 G,2 A,2 | E,2 F,2 C,2 B,,2 | [A,,,A,,]8- | [A,,,A,,]6 [G,,,G,,]2 | %29
 [F,,,F,,]6 [B,,,B,,]2 | [C,,C,]4 C,2 ^D,2 | ^E,2 C,2 F,2 F,,2 | C,2 ^D,2 ^E,2 C,2 | %33
 F,2 G,2 A,2 F,2 | D,2 B,,2 E,2 E,,2 | A,,2 B,,2 C,2 A,,2 | B,,2 C,2 D,2 B,2 | G,2 E,2 A,2 D,2 | %38
 E,2 D,2 E,2 E,,2 | F,,2 F,>E, ^D,2 B,,2 | [E,,E,]8 | E,E^DE B,=DG,B, | E,4 A,2 D,2 | %43
 E,2 D,2 E,2 E,,2 | A,,2 C>B, A,2 E,>D, | C,2 F,>G, A,2 D,>C, | B,,2 A,,2 E,2 E,,2 | A,,8 || %48
[K:D][M:3/4] [D,,D,]3 A,,E,A,, x23/8 | F,E,D,B,A,G, | F,E,D,B,,A,,G,, |[M:3/4] F,,G,, A,,2 A,,,2 | %52
 D,,A,,D,A,,E,A,, | F,E,D,B,A,G, | F,E,D,C,B,,A,, | G,,E,, A,,2 A,,,2 | D,,G,,D,E,D,=C, | %57
 B,,G,A,,F,G,,G, | =C,B,,A,,B,,C,A,, | B,,^C,^D,B,,C,D, | E,3 =CB,A, | G,F,E,B,,F,B,, | %62
 G,A,G,F,E,F, | G,E, A,2 A,,2 | D,3{G,A,} B, A,G, | F,E,D,E,D,C, | B,,2 F,2 F,,2 | G,,3 B,,D,G, | %68
 F,2 F,,2 E,,2 | D,,2 D,E,D,C, | B,,2 E,2 E,,2 | A,,E,A,B,A,G, | F,DCB,A,G, | F,E,D,A,,E,A,, | %74
 F,E,D,B,A,G, | F,E,D,B,,A,,G,, | F,,2 G,,2 A,,2 | D,,A,,D,E,D,C, | B,,2 A,,2 G,,2 | F,,2 F,2 E,2 | %80
 ^D,C,D,B,,C,D, | E,F,G,=CB,A, | G,F,E,B,A,G, | F,G, A,2 A,,2 | B,,B,A,G, F,2 | E,2 A,,2 D,2 | %86
 C,2 F,,2 B,,2 | A,,G, A,2 A,,2 | D,3 A,,E,A,, x23/8 | F,E,D,B,A,G, | F,E,D,B,,A,,G,, | %91
 F,,>G,, A,,2 A,,,2 | D,,6 ||[K:G][M:4/4] [^D,,B,,^D,]8- | [D,,B,,D,]8 || %95
[M:4/4] [E,,E,]4 [E,,E,]4- | E,/E/D/C/ B,C/D/ E,4 | A,,C,/B,,/ A,,/G,,/F,,/E,,/ D,,4- | %98
 D,,/D/C/B,/ A,B,/C/ D,4 | G,,/G,/F,/G,/D,/G,/B,,/D,/ G,,2 G,F, | E,EDD, C,CB,C/D/ | CB,CA, E,4 | %102
 [E,,E,]4 [E,,E,]4 x7/8 | [E,,E,]2 [^D,,^D,]2 !fermata![E,,E,]4 ||[K:A] C,C,/B,,/ C,A,, E,4 | %105
 E,2 z/ C,/D,/E,/ F,B,G,E, | A,A,,A,G, F,/^E,/F,/G,/ A,F, | G,F,^E,C, F,G,A,F, | %108
 C3 C, C/D/C/B,/ A,G, | F,A,/>G,/ F,=E, D,DCB, | A,2 A,,2 B,,2 C,D, | E,4 E,,4 | [A,,,A,,]8 | x8 |] %114

